src/images_karasa_jaga_svg/cmd/32/flowchartshapes.flowchart-card.svg

<svg height="32" viewBox="0 0 32 32" width="32" xmlns="http://www.w3.org/2000/svg" xmlns:xlink="http://www.w3.org/1999/xlink"><linearGradient id="a" gradientTransform="matrix(.40973888 0 0 .24845378 46.138617 23.258463)" gradientUnits="userSpaceOnUse" x1="82.641373" x2="82.641373" y1="421.57352" y2="-98.312485"><stop offset="0" stop-color="#fff"/><stop offset=".30967507" stop-color="#fff"/><stop offset=".69833118" stop-color="#f1f1f1"/><stop offset=".92902523" stop-color="#eaeaea"/><stop offset="1" stop-color="#dfdfdf"/></linearGradient><linearGradient id="b" gradientTransform="matrix(.40973888 0 0 .24845378 46.138617 23.258463)" gradientUnits="userSpaceOnUse" x1="82.625992" x2="148.58893" y1="685.96204" y2="-265.62833"><stop offset="0" stop-color="#7c9fcf"/><stop offset=".5" stop-color="#7c9ece"/><stop offset="1" stop-color="#7b9dcf"/></linearGradient><g fill-rule="evenodd" transform="matrix(.25 0 0 .25 -.000001 .000001)"><path d="m115.98828 3.9902344-64.355468.1855468a4.0110007 4.0110007 0 0 0 -2.830078 1.1796876l-39.6445309 39.8144532a4.0110007 4.0110007 0 0 0 -1.1679687 2.830078v72a4.0110007 4.0110007 0 0 0 4.0097656 4.00977h104a4.0110007 4.0110007 0 0 0 4.00977-4.00977v-112a4.0110007 4.0110007 0 0 0 -4.02149-4.0097656z" fill="url(#b)"/><path d="m51.644421 8.1863851-39.644421 39.8136149v72h104v-112z" fill="url(#a)"/></g></svg>

<?xml version="1.0" encoding="UTF-8" standalone="no"?>
<!-- Created with Inkscape (http://www.inkscape.org/) -->

<svg
   xmlns:dc="http://purl.org/dc/elements/1.1/"
   xmlns:cc="http://creativecommons.org/ns#"
   xmlns:rdf="http://www.w3.org/1999/02/22-rdf-syntax-ns#"
   xmlns:svg="http://www.w3.org/2000/svg"
   xmlns="http://www.w3.org/2000/svg"
   xmlns:xlink="http://www.w3.org/1999/xlink"
   xmlns:sodipodi="http://sodipodi.sourceforge.net/DTD/sodipodi-0.dtd"
   xmlns:inkscape="http://www.inkscape.org/namespaces/inkscape"
   version="1.1"
   id="svg2"
   width="128"
   height="128"
   viewBox="0 0 128 128"
   sodipodi:docname="flowchartshapes.flowchart-card.svg"
   inkscape:export-filename="/home/rizmut/Dokumen/Rizmut/Github/libreoffice-style-karasa-jaga/build/images_karasa_jaga/cmd/32/flowchartshapes.flowchart-card.png"
   inkscape:export-xdpi="24"
   inkscape:export-ydpi="24"
   inkscape:version="0.92.3 (unknown)">
  <metadata
     id="metadata8">
    <rdf:RDF>
      <cc:Work
         rdf:about="">
        <dc:format>image/svg+xml</dc:format>
        <dc:type
           rdf:resource="http://purl.org/dc/dcmitype/StillImage" />
        <dc:title />
      </cc:Work>
    </rdf:RDF>
  </metadata>
  <defs
     id="defs6">
    <inkscape:perspective
       id="perspective27"
       inkscape:persp3d-origin="64 : 42.666667 : 1"
       inkscape:vp_z="128 : 64 : 1"
       inkscape:vp_y="0 : 1000 : 0"
       inkscape:vp_x="0 : 64 : 1"
       sodipodi:type="inkscape:persp3d" />
    <linearGradient
       id="linearGradient3369">
      <stop
         id="stop3372"
         offset="0"
         style="stop-color:#ffffff;stop-opacity:1;" />
      <stop
         style="stop-color:#ffffff;stop-opacity:1;"
         offset="0.30967507"
         id="stop3374" />
      <stop
         style="stop-color:#f1f1f1;stop-opacity:1;"
         offset="0.69833118"
         id="stop3376" />
      <stop
         id="stop3378"
         offset="0.92902523"
         style="stop-color:#eaeaea;stop-opacity:1;" />
      <stop
         id="stop3384"
         offset="1"
         style="stop-color:#dfdfdf;stop-opacity:1;" />
    </linearGradient>
    <linearGradient
       id="linearGradient7422">
      <stop
         style="stop-color:#7c9fcf;stop-opacity:1"
         offset="0"
         id="stop7424" />
      <stop
         id="stop5348"
         offset="0.5"
         style="stop-color:#7c9ece;stop-opacity:1" />
      <stop
         id="stop7426"
         offset="1"
         style="stop-color:#7b9dcf;stop-opacity:1" />
    </linearGradient>
    <linearGradient
       y2="388.95178"
       x2="399.77466"
       y1="1324.7792"
       x1="405.94968"
       gradientTransform="matrix(0.08097132,0,0,0.07807154,182.74486,-6.9021226)"
       gradientUnits="userSpaceOnUse"
       id="linearGradient2330"
       xlink:href="#linearGradient7422"
       inkscape:collect="always" />
    <linearGradient
       y2="-98.312485"
       x2="82.641373"
       y1="421.57352"
       x1="82.641373"
       gradientTransform="matrix(0.40973888,0,0,0.24845378,46.138617,23.258463)"
       gradientUnits="userSpaceOnUse"
       id="linearGradient2360"
       xlink:href="#linearGradient3369"
       inkscape:collect="always" />
    <linearGradient
       inkscape:collect="always"
       xlink:href="#linearGradient7422"
       id="linearGradient842"
       gradientUnits="userSpaceOnUse"
       gradientTransform="matrix(0.40973888,0,0,0.24845378,46.138617,23.258463)"
       x1="82.625992"
       y1="685.96204"
       x2="148.58893"
       y2="-265.62833" />
  </defs>
  <sodipodi:namedview
     pagecolor="#ffffff"
     bordercolor="#666666"
     borderopacity="1"
     objecttolerance="10"
     gridtolerance="10"
     guidetolerance="10"
     inkscape:pageopacity="0"
     inkscape:pageshadow="2"
     inkscape:window-width="1366"
     inkscape:window-height="657"
     id="namedview4"
     showgrid="true"
     inkscape:snap-page="true"
     inkscape:snap-global="true"
     inkscape:zoom="1.2247144"
     inkscape:cx="-7.6900651"
     inkscape:cy="-15.008426"
     inkscape:window-x="0"
     inkscape:window-y="30"
     inkscape:window-maximized="1"
     inkscape:current-layer="svg2"
     showguides="false"
     inkscape:snap-smooth-nodes="true">
    <inkscape:grid
       type="xygrid"
       id="grid837"
       spacingx="4"
       spacingy="4"
       empspacing="1" />
  </sodipodi:namedview>
  <path
     sodipodi:type="inkscape:offset"
     inkscape:radius="4.0105996"
     inkscape:original="M 116 8 L 51.644531 8.1855469 L 12 48 L 12 120 L 116 120 L 116 8 z "
     style="fill:url(#linearGradient842);fill-opacity:1;fill-rule:evenodd;stroke:none;stroke-width:4.47213125;stroke-linecap:round;stroke-linejoin:round;stroke-miterlimit:4;stroke-dasharray:none;stroke-opacity:1"
     id="path840"
     d="M 115.98828,3.9902344 51.632812,4.1757812 A 4.0110007,4.0110007 0 0 0 48.802734,5.3554688 L 9.1582031,45.169922 A 4.0110007,4.0110007 0 0 0 7.9902344,48 v 72 A 4.0110007,4.0110007 0 0 0 12,124.00977 H 116 A 4.0110007,4.0110007 0 0 0 120.00977,120 V 8 a 4.0110007,4.0110007 0 0 0 -4.02149,-4.0097656 z" />
  <path
     style="fill:url(#linearGradient2360);fill-opacity:1;fill-rule:evenodd;stroke:none;stroke-width:4.47213125;stroke-linecap:round;stroke-linejoin:round;stroke-miterlimit:4;stroke-dasharray:none;stroke-opacity:1"
     d="M 51.644421,8.1863851 12,48 v 72 H 116 V 8 Z"
     id="path37359"
     inkscape:connector-curvature="0"
     sodipodi:nodetypes="cccccc" />
  <g
     transform="matrix(0,0.57912965,0.57912965,0,27.114229,-2.9133545)"
     inkscape:label="Livello 1"
     id="g1544" />
  <g
     transform="matrix(0,-0.57912965,0.57912965,0,27.114229,130.91165)"
     inkscape:label="Livello 1"
     id="g1599" />
</svg>
